X:10
T: Denis McMahon's
S: "Johnny O'Leary of Sliabh Luachra" (#345)
Z: B.Black
L: 1/8
M: 12/8
R: slide
K: G
D|G2F G2A B2e efe|d2B BAB d2B BAB|
G/A/GG G2A Bee efe|d2B BAB G3 G2D|
GGF G2A B2e efe|ded BAB dBB dBA|
G3 G2A Bze efe|ddB ABA G3 G3 ||
gfg edB e2f g2e|d2B BAB d/e/dB BAB|
gfg edB e2f gfe|d2B BAB G3 G3 :|
